flaticon/seo-and-analytics/analytics-8.svg

<svg xmlns="http://www.w3.org/2000/svg" width="32" height="32" viewBox="0 0 24 24">
    <path d="M 11.601562 7.921875 L 11.601562 4 C 11.601562 3.761719 11.441406 3.601562 11.199219 3.601562 C 8.761719 3.601562 6.800781 5.558594 6.800781 8 C 6.800781 10.441406 8.761719 12.398438 11.199219 12.398438 C 11.878906 12.398438 12.519531 12.238281 13.121094 11.960938 C 13.320312 11.878906 13.398438 11.640625 13.320312 11.441406 Z M 11.199219 11.601562 C 9.199219 11.601562 7.601562 10 7.601562 8 C 7.601562 6.160156 9 4.640625 10.800781 4.441406 L 10.800781 8 C 10.800781 8.078125 10.800781 8.121094 10.839844 8.160156 L 12.398438 11.398438 C 12 11.519531 11.601562 11.601562 11.199219 11.601562 Z M 11.199219 11.601562"/>
    <path d="M 12.800781 2.800781 C 12.558594 2.800781 12.398438 2.960938 12.398438 3.199219 L 12.398438 7.601562 C 12.398438 7.679688 12.398438 7.71875 12.441406 7.761719 L 14.039062 10.960938 C 14.121094 11.121094 14.238281 11.199219 14.398438 11.199219 L 14.519531 11.199219 C 14.601562 11.199219 14.640625 11.199219 14.71875 11.160156 C 16.238281 10.398438 17.199219 8.921875 17.199219 7.199219 C 17.199219 4.761719 15.238281 2.800781 12.800781 2.800781 Z M 14.601562 10.320312 L 13.199219 7.519531 L 13.199219 3.640625 C 15 3.839844 16.398438 5.359375 16.398438 7.199219 C 16.398438 8.519531 15.71875 9.679688 14.601562 10.320312 Z M 14.601562 10.320312"/>
    <path d="M 22.199219 0.398438 L 1.800781 0.398438 C 0.800781 0.398438 0 1.199219 0 2.199219 L 0 17.398438 C 0 18.398438 0.800781 19.199219 1.800781 19.199219 L 8.933594 19.199219 C 8.988281 19.894531 8.675781 20.578125 8.121094 20.960938 L 7.398438 21.480469 C 7.34375 21.515625 7.292969 21.558594 7.257812 21.609375 C 6.765625 21.679688 6.398438 22.089844 6.398438 22.601562 C 6.398438 23.160156 6.839844 23.601562 7.398438 23.601562 L 16.601562 23.601562 C 17.160156 23.601562 17.601562 23.160156 17.601562 22.601562 C 17.601562 22.066406 17.199219 21.640625 16.671875 21.605469 C 16.640625 21.554688 16.605469 21.511719 16.558594 21.480469 L 15.839844 20.960938 C 15.273438 20.570312 14.992188 19.902344 15.042969 19.199219 L 22.199219 19.199219 C 23.199219 19.199219 24 18.398438 24 17.398438 L 24 2.199219 C 24 1.199219 23.199219 0.398438 22.199219 0.398438 Z M 16.601562 22.800781 L 7.398438 22.800781 C 7.28125 22.800781 7.199219 22.71875 7.199219 22.601562 C 7.199219 22.480469 7.28125 22.398438 7.398438 22.398438 L 16.601562 22.398438 C 16.71875 22.398438 16.800781 22.480469 16.800781 22.601562 C 16.800781 22.71875 16.71875 22.800781 16.601562 22.800781 Z M 15.320312 21.601562 L 8.640625 21.601562 C 9.398438 21.039062 9.800781 20.121094 9.761719 19.199219 L 14.238281 19.199219 C 14.160156 20.121094 14.601562 21.039062 15.320312 21.601562 Z M 23.199219 17.398438 C 23.199219 17.960938 22.761719 18.398438 22.199219 18.398438 L 1.800781 18.398438 C 1.238281 18.398438 0.800781 17.960938 0.800781 17.398438 L 0.800781 15.601562 L 23.199219 15.601562 Z M 0.800781 14.800781 L 0.800781 2.199219 C 0.800781 1.640625 1.238281 1.199219 1.800781 1.199219 L 22.199219 1.199219 C 22.761719 1.199219 23.199219 1.640625 23.199219 2.199219 L 23.199219 14.800781 Z M 0.800781 14.800781"/>
    <path d="M6 2.398438L4 2.398438C3.761719 2.398438 3.601562 2.558594 3.601562 2.800781 3.601562 3.039062 3.761719 3.199219 4 3.199219L6 3.199219C6.238281 3.199219 6.398438 3.039062 6.398438 2.800781 6.398438 2.558594 6.238281 2.398438 6 2.398438zM2 3.199219L2.398438 3.199219C2.640625 3.199219 2.800781 3.039062 2.800781 2.800781 2.800781 2.558594 2.640625 2.398438 2.398438 2.398438L2 2.398438C1.761719 2.398438 1.601562 2.558594 1.601562 2.800781 1.601562 3.039062 1.761719 3.199219 2 3.199219zM4 4.398438C4 4.160156 3.839844 4 3.601562 4L2 4C1.761719 4 1.601562 4.160156 1.601562 4.398438 1.601562 4.640625 1.761719 4.800781 2 4.800781L3.601562 4.800781C3.839844 4.800781 4 4.640625 4 4.398438zM6 4L5.199219 4C4.960938 4 4.800781 4.160156 4.800781 4.398438 4.800781 4.640625 4.960938 4.800781 5.199219 4.800781L6 4.800781C6.238281 4.800781 6.398438 4.640625 6.398438 4.398438 6.398438 4.160156 6.238281 4 6 4zM22 11.199219L20 11.199219C19.761719 11.199219 19.601562 11.359375 19.601562 11.601562 19.601562 11.839844 19.761719 12 20 12L22 12C22.238281 12 22.398438 11.839844 22.398438 11.601562 22.398438 11.359375 22.238281 11.199219 22 11.199219zM18 12L18.398438 12C18.640625 12 18.800781 11.839844 18.800781 11.601562 18.800781 11.359375 18.640625 11.199219 18.398438 11.199219L18 11.199219C17.761719 11.199219 17.601562 11.359375 17.601562 11.601562 17.601562 11.839844 17.761719 12 18 12zM19.601562 12.800781L18 12.800781C17.761719 12.800781 17.601562 12.960938 17.601562 13.199219 17.601562 13.441406 17.761719 13.601562 18 13.601562L19.601562 13.601562C19.839844 13.601562 20 13.441406 20 13.199219 20 12.960938 19.839844 12.800781 19.601562 12.800781zM22 12.800781L21.199219 12.800781C20.960938 12.800781 20.800781 12.960938 20.800781 13.199219 20.800781 13.441406 20.960938 13.601562 21.199219 13.601562L22 13.601562C22.238281 13.601562 22.398438 13.441406 22.398438 13.199219 22.398438 12.960938 22.238281 12.800781 22 12.800781zM18.800781 4.398438L19.601562 4.398438 19.601562 5.199219C19.601562 5.441406 19.761719 5.601562 20 5.601562 20.238281 5.601562 20.398438 5.441406 20.398438 5.199219L20.398438 4.398438 21.199219 4.398438C21.441406 4.398438 21.601562 4.238281 21.601562 4 21.601562 3.761719 21.441406 3.601562 21.199219 3.601562L20.398438 3.601562 20.398438 2.800781C20.398438 2.558594 20.238281 2.398438 20 2.398438 19.761719 2.398438 19.601562 2.558594 19.601562 2.800781L19.601562 3.601562 18.800781 3.601562C18.558594 3.601562 18.398438 3.761719 18.398438 4 18.398438 4.238281 18.558594 4.398438 18.800781 4.398438zM5.480469 10.519531C5.320312 10.359375 5.078125 10.359375 4.921875 10.519531L4 11.441406 3.078125 10.519531C2.921875 10.359375 2.679688 10.359375 2.519531 10.519531 2.359375 10.679688 2.359375 10.921875 2.519531 11.078125L3.441406 12 2.519531 12.921875C2.359375 13.078125 2.359375 13.320312 2.519531 13.480469 2.601562 13.558594 2.679688 13.601562 2.800781 13.601562 2.921875 13.601562 3 13.558594 3.078125 13.480469L4 12.558594 4.921875 13.480469C5 13.558594 5.078125 13.601562 5.199219 13.601562 5.320312 13.601562 5.398438 13.558594 5.480469 13.480469 5.640625 13.320312 5.640625 13.078125 5.480469 12.921875L4.558594 12 5.480469 11.078125C5.640625 10.921875 5.640625 10.679688 5.480469 10.519531zM5.480469 10.519531"/>
</svg>

<svg xmlns="http://www.w3.org/2000/svg" width="32" height="32" viewBox="0 0 24 24">
    <path d="M11.602 7.922V4c0-.238-.16-.398-.403-.398A4.385 4.385 0 0 0 6.801 8a4.385 4.385 0 0 0 4.398 4.398c.68 0 1.32-.16 1.922-.437.2-.082.277-.32.2-.52zm-.403 3.68C9.2 11.602 7.602 10 7.602 8A3.59 3.59 0 0 1 10.8 4.441V8c0 .078 0 .121.039.16l1.558 3.238a4.13 4.13 0 0 1-1.199.204zm0 0"/>
    <path d="M12.8 2.8c-.241 0-.402.16-.402.4v4.402c0 .078 0 .117.043.16l1.598 3.199c.082.16.2.238.36.238h.12c.083 0 .122 0 .2-.039 1.52-.762 2.48-2.238 2.48-3.96a4.388 4.388 0 0 0-4.398-4.4zm1.802 7.52l-1.403-2.8V3.64c1.801.2 3.2 1.72 3.2 3.56 0 1.32-.68 2.48-1.797 3.12zm0 0"/>
    <path d="M22.2.398H1.8C.8.398 0 1.2 0 2.2v15.2c0 1 .8 1.8 1.8 1.8h7.134c.054.696-.258 1.38-.813 1.762l-.723.52a.495.495 0 0 0-.14.128.993.993 0 0 0-.86.993c0 .558.442 1 1 1h9.204c.558 0 1-.442 1-1a.988.988 0 0 0-.93-.997.389.389 0 0 0-.113-.125l-.72-.52c-.566-.39-.847-1.058-.796-1.76h7.156c1 0 1.801-.802 1.801-1.802V2.2c0-1-.8-1.8-1.8-1.8zm-5.598 22.403H7.398a.19.19 0 0 1-.199-.2c0-.12.082-.203.2-.203h9.203c.117 0 .199.082.199.204a.19.19 0 0 1-.2.199zm-1.282-1.2H8.64c.758-.562 1.16-1.48 1.122-2.402h4.476c-.078.922.364 1.84 1.082 2.403zm7.88-4.203c0 .563-.438 1-1 1H1.8c-.562 0-1-.437-1-1v-1.796h22.4zM.8 14.801V2.199c0-.558.438-1 1-1h20.4a.99.99 0 0 1 1 1v12.602zm0 0"/>
    <path d="M6 2.398H4c-.238 0-.398.16-.398.403 0 .238.16.398.398.398h2c.238 0 .398-.16.398-.398 0-.242-.16-.403-.398-.403zm0 0M2 3.2h.398c.243 0 .403-.16.403-.4 0-.241-.16-.402-.403-.402H2c-.238 0-.398.16-.398.403 0 .238.16.398.398.398zm0 0M4 4.398C4 4.16 3.84 4 3.602 4H2c-.238 0-.398.16-.398.398 0 .243.16.403.398.403h1.602C3.84 4.8 4 4.64 4 4.398zm0 0M6 4h-.8c-.24 0-.4.16-.4.398 0 .243.16.403.4.403H6c.238 0 .398-.16.398-.403C6.398 4.16 6.238 4 6 4zm0 0M22 11.2h-2c-.238 0-.398.16-.398.402 0 .238.16.398.398.398h2c.238 0 .398-.16.398-.398 0-.243-.16-.403-.398-.403zm0 0M18 12h.398c.243 0 .403-.16.403-.398 0-.243-.16-.403-.403-.403H18c-.238 0-.398.16-.398.403 0 .238.16.398.398.398zm0 0M19.602 12.8H18c-.238 0-.398.16-.398.4 0 .241.16.402.398.402h1.602c.238 0 .398-.16.398-.403 0-.238-.16-.398-.398-.398zm0 0M22 12.8h-.8c-.24 0-.4.16-.4.4 0 .241.16.402.4.402h.8c.238 0 .398-.16.398-.403 0-.238-.16-.398-.398-.398zm0 0M18.8 4.398h.802V5.2c0 .242.16.403.398.403.238 0 .398-.16.398-.403v-.8h.801c.242 0 .403-.16.403-.399 0-.238-.16-.398-.403-.398h-.8V2.8c0-.242-.16-.403-.399-.403-.238 0-.398.16-.398.403v.8H18.8c-.242 0-.403.16-.403.399 0 .238.16.398.403.398zm0 0M5.48 10.52a.385.385 0 0 0-.558 0L4 11.44l-.922-.921a.385.385 0 0 0-.558 0 .385.385 0 0 0 0 .558L3.44 12l-.921.922a.385.385 0 0 0 0 .558c.082.079.16.122.28.122a.36.36 0 0 0 .278-.122L4 12.56l.922.921a.36.36 0 0 0 .277.122c.121 0 .2-.043.281-.122a.385.385 0 0 0 0-.558L4.56 12l.921-.922a.385.385 0 0 0 0-.558zm0 0"/>
</svg>
